src/assets/svg/icons/fa/nuevos/classic/light/roller-coaster classic light.svg

<svg xmlns="http://www.w3.org/2000/svg" viewBox="0 0 640 512"><!--! Font Awesome Pro 6.4.0 by @fontawesome - https://fontawesome.com License - https://fontawesome.com/license (Commercial License) Copyright 2023 Fonticons, Inc. --><path d="M144 64c-5.4 0-10.8 .4-16 1.1V464c0 8.8-7.2 16-16 16s-16-7.2-16-16V74.8C58.2 92.8 32 131.3 32 176V464c0 8.8-7.2 16-16 16s-16-7.2-16-16V176C0 96.5 64.5 32 144 32h6.6c46.2 0 89.7 22.2 116.7 59.7L392.7 265.4c24.8 34.3 64.5 54.6 106.8 54.6H512c53 0 96-43 96-96v-5c0-40.9-26.9-75.4-64-86.9V272c-6.7 5-15 8-24 8h-8V128.1c-22.5 .8-44.4 6.8-64 17.5V263.2c-9.2-6.3-17.3-14.2-23.9-23.4L416 228.5V169l-21.4 19L373.4 164l26.4-23.5C432.1 111.9 473.8 96 517 96c67.9 0 123 55.1 123 123v5V464c0 8.8-7.2 16-16 16s-16-7.2-16-16V308.7c-23.5 26.6-57.8 43.3-96 43.3V464c0 8.8-7.2 16-16 16s-16-7.2-16-16V350.8c-22.8-2.7-44.6-10.2-64-21.7V464c0 8.8-7.2 16-16 16s-16-7.2-16-16V304.3c-6.2-6.2-12-12.9-17.2-20.2L320 219.3V464c0 8.8-7.2 16-16 16s-16-7.2-16-16V175l-46.7-64.6c-5.1-7-10.9-13.4-17.3-19V464c0 8.8-7.2 16-16 16s-16-7.2-16-16V72c-13-5.2-27.1-8-41.4-8H144z"/></svg>

<svg xmlns="http://www.w3.org/2000/svg" viewBox="0 0 640 512"><path d="M144 64C138.6 64 133.2 64.39 128 65.13V464C128 472.8 120.8 480 112 480C103.2 480 96 472.8 96 464V74.78C58.16 92.75 32 131.3 32 176V464C32 472.8 24.84 480 16 480C7.164 480 0 472.8 0 464V176C0 96.47 64.47 32 144 32H150.6C196.8 32 240.2 54.2 267.3 91.69L392.7 265.4C417.5 299.7 457.2 320 499.6 320H512C565 320 608 277 608 224V218.1C608 178.1 581.1 143.6 544 132.1V255.1C544 264.8 536.8 271.1 528 271.1C519.2 271.1 512 264.8 512 255.1V128.1C489.5 128.9 467.6 134.9 448 145.5V240C448 248.8 440.8 256 432 256C423.2 256 416 248.8 416 240V168.1L394.6 187.1C388 193.8 377.9 193.2 372 186.6C366.2 180 366.8 169.9 373.4 164L399.8 140.6C432.1 111.9 473.8 96 517 96C584.9 96 640 151.1 640 218.1V464C640 472.8 632.8 480 624 480C615.2 480 608 472.8 608 464V308.7C584.5 335.2 550.2 352 512 352V464C512 472.8 504.8 480 496 480C487.2 480 480 472.8 480 464V350.8C457.2 348.1 435.4 340.6 416 329.1V464C416 472.8 408.8 480 400 480C391.2 480 384 472.8 384 464V304.3C377.8 298.1 372 291.4 366.8 284.1L319.1 219.3V464C319.1 472.8 312.8 480 303.1 480C295.2 480 287.1 472.8 287.1 464V175L241.3 110.4C236.3 103.4 230.4 97.03 223.1 91.44V464C223.1 472.8 216.8 480 207.1 480C199.2 480 191.1 472.8 191.1 464V71.95C178.1 66.77 164.9 64 150.6 64L144 64z"/></svg>
